image/bulletin.svg

<svg width="92" height="74" viewBox="0 0 92 74" fill="none" xmlns="http://www.w3.org/2000/svg">
<path d="M27.2154 19.5154C26.5479 19.5154 25.9528 19.7401 25.5234 20.1695C25.0939 20.599 24.8692 21.1941 24.8692 21.8615C24.8692 22.529 25.0939 23.1241 25.5234 23.5536C25.9528 23.983 26.5479 24.2077 27.2154 24.2077C27.8829 24.2077 28.4779 23.983 28.9074 23.5536C29.3369 23.1241 29.5615 22.529 29.5615 21.8615C29.5615 21.1941 29.3369 20.599 28.9074 20.1695C28.4779 19.7401 27.8829 19.5154 27.2154 19.5154Z" stroke="#E4C4CF"/>
</svg>

<svg xmlns="http://www.w3.org/2000/svg" width="89.514" height="72" fill="none" viewBox="0 0 92 74">
  <path stroke="url(#a)" d="M6.962 66.538v.5H85.5V6.962H6.962v59.577Zm3.363-40.418.004.01.005.01 9.6 19.938.003.007c.134.267.402.406.6.48.224.082.49.129.77.142a3.89 3.89 0 0 0 1.88-.395l11.81-5.536.288-.135v-8.81c0-.243.114-.616.369-1.072a6.976 6.976 0 0 1 1.016-1.353A6.49 6.49 0 0 1 38 28.314c.462-.276.88-.414 1.215-.414h8.547l-.342-.715-7.753-16.246-.004-.009c-.286-.57-.841-.815-1.362-.873a2.819 2.819 0 0 0-1.52.278l-25.84 12.182-.01.005c-.344.172-.614.4-.8.69-.187.29-.27.61-.284.934-.029.628.196 1.317.478 1.974Zm26.888-14.883.01-.005a1.82 1.82 0 0 1 .968-.181c.308.034.49.157.575.323l7.41 15.526h-6.96c-.588 0-1.186.231-1.728.555a7.485 7.485 0 0 0-1.543 1.262 7.968 7.968 0 0 0-1.164 1.554c-.287.514-.496 1.064-.496 1.56v8.174L22.757 45.41l-.011.005a2.889 2.889 0 0 1-1.391.294 1.643 1.643 0 0 1-.472-.082.528.528 0 0 1-.072-.032L11.24 25.716c-.27-.63-.412-1.138-.394-1.524a.861.861 0 0 1 .126-.439.976.976 0 0 1 .4-.334l25.841-12.182ZM4.693 73.5h83.076c1.086 0 2.13-.538 2.892-1.3.763-.763 1.3-1.807 1.3-2.892V4.692c0-1.085-.537-2.13-1.3-2.892C89.9 1.038 88.855.5 87.77.5H4.692c-1.085 0-2.13.538-2.892 1.3C1.038 2.563.5 3.607.5 4.692v64.616c0 1.085.538 2.13 1.3 2.892.763.762 1.807 1.3 2.892 1.3Zm83.076-1H4.692c-.76 0-1.562-.385-2.185-1.007-.622-.622-1.007-1.425-1.007-2.185V4.692c0-.76.385-1.562 1.007-2.185C3.13 1.885 3.932 1.5 4.692 1.5H87.77c.76 0 1.563.385 2.185 1.007.622.623 1.008 1.425 1.008 2.185v64.616c0 .76-.386 1.563-1.008 2.185-.622.622-1.424 1.007-2.185 1.007ZM84.5 7.962v58.076H7.962V7.962H84.5Zm-43.808 24h36.923c.3 0 .64.154.916.43s.43.617.43.916v25.846c0 .299-.154.64-.43.915-.276.276-.617.431-.916.431H40.692c-.299 0-.64-.154-.915-.43-.276-.276-.43-.617-.43-.916V33.308c0-.3.154-.64.43-.916s.616-.43.915-.43Zm36.923-1H40.692c-.624 0-1.206.307-1.623.723-.416.416-.723.999-.723 1.623v25.846c0 .624.307 1.206.724 1.623.416.416.998.723 1.622.723h36.923c.625 0 1.207-.307 1.623-.723.416-.417.724-.999.724-1.623V33.308c0-.624-.308-1.207-.724-1.623-.416-.416-.998-.723-1.623-.723Zm-17.538 3.692c-.667 0-1.263.224-1.692.654-.43.43-.654 1.025-.654 1.692s.224 1.263.654 1.692c.43.43 1.025.654 1.692.654s1.263-.224 1.692-.654c.43-.43.654-1.025.654-1.692s-.225-1.263-.654-1.692c-.43-.43-1.025-.654-1.692-.654ZM58.73 37c0-.44.144-.768.361-.985.217-.217.545-.361.985-.361.44 0 .768.144.985.361.217.217.361.545.361.985 0 .44-.145.768-.361.985-.217.217-.545.361-.985.361-.44 0-.768-.144-.985-.361-.217-.217-.361-.545-.361-.985ZM27.215 19.515c-.667 0-1.262.225-1.692.654-.43.43-.654 1.025-.654 1.692 0 .668.225 1.263.654 1.693.43.429 1.025.654 1.692.654.668 0 1.263-.225 1.692-.654.43-.43.654-1.025.654-1.692 0-.668-.224-1.263-.654-1.692-.43-.43-1.024-.655-1.692-.655Z"/>
  <defs>
    <radialGradient id="a" cx="0" cy="0" r="1" gradientTransform="matrix(0 25 -45.2308 0 45 25)" gradientUnits="userSpaceOnUse">
      <stop offset="0.1" stop-color="#E4C4CF"/>
      <stop offset="0.75" stop-color="white"/>
      <stop offset="1" stop-color="#E4C4CF"/>
    </radialGradient>
  </defs>
</svg>
